Icons/SVG/brands/bloomberg.svg

<?xml version="1.0" encoding="UTF-8"?><svg id="Bloomberg" xmlns="http://www.w3.org/2000/svg" viewBox="0 0 24 24"><path d="m22,2v-1H2v1h-1v20h1v1h20v-1h1V2h-1Zm-15,3h7v1h1v1h1v4h-1v1h1v1h1v4h-1v1h-1v1H7V5Z"/><polygon points="15 14 15 16 14 16 14 17 9 17 9 13 14 13 14 14 15 14"/><polygon points="14 8 14 10 13 10 13 11 9 11 9 7 13 7 13 8 14 8"/></svg>

<svg width="24" height="24" viewBox="0 0 24 24" fill="none" xmlns="http://www.w3.org/2000/svg">
<path d="M22 2V1H2V2H1V22H2V23H22V22H23V2H22ZM7 5H14V6H15V7H16V11H15V12H16V13H17V17H16V18H15V19H7V5Z" fill="black"/>
<path d="M15 14V16H14V17H9V13H14V14H15Z" fill="black"/>
<path d="M14 8V10H13V11H9V7H13V8H14Z" fill="black"/>
</svg>
